resources/svg/drag.svg

<svg xmlns="http://www.w3.org/2000/svg" viewBox="0 0 15 15" fill="currentColor"><path fill-rule="evenodd" clip-rule="evenodd" d="M1 1H0V0H1V1ZM5 1H4V0H5V1ZM9 1H8V0H9V1ZM3 3H14V7H13V4H4V13H7V14H3V3ZM1 5H0V4H1V5ZM7.14645 7.14645C7.27485 7.01805 7.46276 6.96935 7.63736 7.01924L14.6374 9.01924C14.8408 9.07736 14.9856 9.25723 14.999 9.46837C15.0124 9.67952 14.8914 9.87623 14.697 9.95957L11.3808 11.3808L9.95957 14.697C9.87623 14.8914 9.67952 15.0124 9.46837 14.999C9.25723 14.9856 9.07736 14.8408 9.01924 14.6374L7.01924 7.63736C6.96935 7.46276 7.01805 7.27485 7.14645 7.14645ZM8.22801 8.22801L9.59441 13.0104L10.5404 10.803C10.591 10.685 10.685 10.591 10.803 10.5404L13.0104 9.59441L8.22801 8.22801ZM1 9H0V8H1V9Z" fill="black"/></svg>

<svg xmlns="http://www.w3.org/2000/svg" viewBox="0 0 15 15" fill="currentColor"><path fill-rule="evenodd" clip-rule="evenodd" d="M1 1H0V0h1v1zm4 0H4V0h1v1zm4 0H8V0h1v1zM3 3h11v4h-1V4H4v9h3v1H3V3zM1 5H0V4h1v1zm6.146 2.146a.5.5 0 01.491-.127l7 2a.5.5 0 01.06.94l-3.316 1.422-1.421 3.316a.5.5 0 01-.94-.06l-2-7a.5.5 0 01.126-.49zm1.082 1.082l1.366 4.782.946-2.207a.5.5 0 01.263-.263l2.207-.946-4.782-1.366zM1 9H0V8h1v1z" fill="currentColor"/></svg>
